X:1
T:First to Greet Us There
T:First to Greet Us There
T:Charles Davis Tillman
T:S.A. Lowe, 1903
T:Public Domain Courtesy of the Cyber Hymnal™
T:Public Domain Courtesy of the Cyber Hymnal™
C:Charles Davis Tillman
Z:Public Domain
Z:Courtesy of the Cyber Hymnal™
%%score ( 1 2 ) ( 3 4 )
L:1/8
Q:1/4=87
M:4/4
K:F
V:1 treble 
V:2 treble 
V:3 bass 
V:4 bass 
V:1
 FG | A>A ^GA B<A =GA | F>F FF F2 AB | c>c =Bd c<A FA | A>G GD G2 AB | c>c =Bd | c<A FE | %7
w: 1.~When we|reach that roy- al ci- ty, In that|land of fade- less day, When we|pass in- side the por- tal Where the|right- eous live for aye, We shall|meet our bless- èd|loved ones In that|
w: 2.~When in-|side that glor- ious ci- ty In that|land of fade- less day, We will|view with ho- ly rap- ture All of|those in bright ar- ray; But a-|mong the saints and|an- gels There is|
w: 3.~When the|heav’n- ly choir as- sem- bles, At the|throne they’ll ga- ther round, Heav’n with|prais- es will be ring- ing, Hal- le-|lu- jahs will re- sound; But the|theme of all the|mu- sic In which|
 D>F Bc d2 ed | c>c cd c<A FA | AGGC F2 ||"^Refrain" [Ac][Af] | [Bf][Be][Be][Bd] [Be]2 [Bd][Be] | %12
w: land so bless- èd fair, But the|Sav- ior in His beau- ty Will be|first to greet us there.|||
w: none so bright and fair As the|Sav- ior in His beau- ty, Who’ll be|first to greet us there.|Hap- py|meet- ing that will be, Glor- ious|
w: all shall join and share, Will be|Je- sus in His beau- ty, Who was|first to greet us there.|||
 [Ad][Ac][Ac][FA] [Ac]2 [FA][Fc] | [Ec][EB][EB][EA] [EB]<[EB] [EB][Ed] | %14
w: ||
w: greet- ing we shall see, When we|pass in- to that ci- ty, In that|
w: ||
 [Fd][Fc][Fc][FA] [Fc]2 [Ac][Af] | [Bf][Be][Be][Bd] [Be]2 [Bd][Be] | %16
w: ||
w: ci- ty bright and fair; Hap- py|meet- ing that will be, Glor- ious|
w: ||
 [Ad][Ac][Ac][FA] [Fd]2 [FA][_Ec] | [DB][DB][DF][_DB] [CA][CA][CF][CA] | [=B,A][B,G][CG]C [CF]6 |] %19
w: |||
w: greet- ing we shall see, But the|Sav- ior in His beau- ty Will be|first to greet us there.|
w: |||
V:2
 x2 | x8 | x8 | x8 | x8 | x4 | x4 | x8 | x8 | x6 || x2 | x8 | x8 | x8 | x8 | x8 | x8 | x8 | %18
 x3 C x6 |] %19
V:3
 A,B, | C>C =B,C D<C B,C | A,>A, ^G,G, A,2 F,G, | A,>A, ^G,B, A,<C A,C | =B,>B, B,B, _B,2 F,G, | %5
 A,>A, ^G,B, | A,<C A,C | B,>D DB, B,2 CB, | A,>A, A,B, A,<C A,C | =B,B,_B,B, [F,,,F,,A,]2 || %10
 [F,C][F,C] | [F,C][F,C][F,C][F,C] [G,C]2 [C,C][C,C] | [F,F][F,F][F,F][F,C] [F,F]2 [F,C][F,A,] | %13
 [C,G,][C,G,][C,G,][C,C] [C,C]<[C,C] [C,G,][C,B,] | [F,B,][F,A,][F,A,][F,C] [F,A,]2 [F,C][F,C] | %15
 [G,C][G,C][G,C][G,C] [G,C]2 [C,C][C,E] | [F,F][F,F][F,F][F,C] [F,A,]2 [F,C][F,A,] | %17
 [B,,F,][B,,F,][B,,F,][B,,F,] [F,,F,][F,,F,][F,A,][F,A,] | [G,,G,][G,,G,][C,B,][C,B,] [F,,F,A,]6 |] %19
V:4
 x2 | [F,,-F,]4 [F,,F,]4 | [F,,-F,]4 [F,,F,]4 | [F,,-F,]4 [F,,F,]4 | [G,,-G,]4 [G,,G,]4 | %5
 [F,,-F,]4 | [F,,F,]4 | [A,,,-B,,]4 [A,,,B,,]4 | [F,,-F,]4 [F,,F,]4 | [G,,,G,,]2 [C,,C,]2 x2 || %10
 x2 | x8 | x8 | x8 | x8 | x8 | x8 | x8 | x10 |] %19

